flaticon/transportation/truck-3.svg

<svg xmlns="http://www.w3.org/2000/svg" width="32" height="32" viewBox="0 0 24 24">
    <path d="M 16.671875 16.761719 L 17.265625 17.355469 L 16.542969 18.078125 L 15.949219 17.484375 Z M 5.007812 17.484375 L 5.601562 18.078125 L 6.324219 17.355469 L 5.726562 16.761719 Z M 5.007812 17.484375"/>
    <path d="M 24 11.589844 L 22.359375 11.589844 L 22.1875 10.660156 L 19.84375 10.660156 L 15.945312 5.113281 L 12.441406 5.113281 L 12.441406 3.292969 L 0 3.292969 L 0 16.90625 L 2.417969 16.90625 C 2.390625 17.074219 2.378906 17.246094 2.378906 17.421875 C 2.378906 19.234375 3.851562 20.707031 5.664062 20.707031 C 7.476562 20.707031 8.953125 19.234375 8.953125 17.421875 C 8.953125 17.246094 8.9375 17.074219 8.910156 16.90625 L 13.363281 16.90625 C 13.335938 17.074219 13.320312 17.246094 13.320312 17.421875 C 13.320312 19.234375 14.796875 20.707031 16.609375 20.707031 C 18.421875 20.707031 19.894531 19.234375 19.894531 17.421875 C 19.894531 17.246094 19.882812 17.074219 19.855469 16.90625 L 23.339844 16.90625 L 22.839844 14.199219 L 24 14.199219 Z M 15.414062 6.132812 L 18.59375 10.660156 L 12.441406 10.660156 L 12.441406 6.132812 Z M 5.664062 19.6875 C 4.414062 19.6875 3.398438 18.671875 3.398438 17.421875 C 3.398438 16.171875 4.414062 15.15625 5.664062 15.15625 C 6.914062 15.15625 7.929688 16.171875 7.929688 17.421875 C 7.929688 18.671875 6.914062 19.6875 5.664062 19.6875 Z M 16.609375 19.6875 C 15.359375 19.6875 14.34375 18.671875 14.34375 17.421875 C 14.34375 16.171875 15.359375 15.15625 16.609375 15.15625 C 17.859375 15.15625 18.875 16.171875 18.875 17.421875 C 18.875 18.671875 17.859375 19.6875 16.609375 19.6875 Z M 19.511719 15.882812 C 18.960938 14.84375 17.867188 14.132812 16.609375 14.132812 C 15.351562 14.132812 14.257812 14.84375 13.703125 15.882812 L 8.570312 15.882812 C 8.015625 14.84375 6.921875 14.132812 5.664062 14.132812 C 4.40625 14.132812 3.3125 14.84375 2.757812 15.882812 L 1.019531 15.882812 L 1.019531 4.3125 L 11.421875 4.3125 L 11.421875 11.679688 L 21.335938 11.679688 L 22.113281 15.882812 Z M 22.980469 13.175781 L 22.652344 13.175781 L 22.546875 12.613281 L 22.980469 12.613281 Z M 22.980469 13.175781"/>
</svg>

<svg xmlns="http://www.w3.org/2000/svg" width="32" height="32" viewBox="0 0 24 24">
    <path d="M16.672 16.762l.594.593-.723.723-.594-.594zm-11.664.722l.594.594.722-.723-.597-.593zm0 0"/>
    <path d="M24 11.59h-1.64l-.172-.93h-2.344l-3.899-5.547h-3.504v-1.82H0v13.613h2.418a3.288 3.288 0 1 0 6.535.516c0-.176-.015-.348-.043-.516h4.453c-.027.168-.043.34-.043.516a3.288 3.288 0 1 0 6.535-.516h3.485l-.5-2.707H24zm-8.586-5.457l3.18 4.527H12.44V6.133zm-9.75 13.554a2.267 2.267 0 0 1-2.266-2.265 2.267 2.267 0 0 1 2.266-2.266 2.267 2.267 0 0 1 2.266 2.266 2.267 2.267 0 0 1-2.266 2.265zm10.945 0a2.267 2.267 0 0 1-2.265-2.265 2.267 2.267 0 0 1 2.265-2.266 2.267 2.267 0 0 1 2.266 2.266 2.267 2.267 0 0 1-2.266 2.265zm2.903-3.804a3.286 3.286 0 0 0-2.903-1.75c-1.257 0-2.351.71-2.906 1.75H8.57a3.296 3.296 0 0 0-2.906-1.75c-1.258 0-2.351.71-2.906 1.75H1.02V4.313h10.402v7.367h9.914l.777 4.203zm3.468-2.707h-.328l-.105-.563h.433zm0 0"/>
</svg>
